!!!!SEGMENT: pl-sa--l-1636--068_anonim--fantasia.krn
!!!id: 17xx:775
!!!COM: Anonim
!!!COM-rism: pe30004985
!!!CDT:
!!!CNT:
!!!OTL: Fantasia
!!!PDT:
!!!SMS-siglum: PL-SA
!!!SMS-shelfmark: L 1636
!!!NIFC-rismID: 1001076910
!!!URL-scan: http://repozytorium.nifc.pl/skany/pl-sa-nut--l1636
!!!ONB-nifc: 20v, skan 0024, s. 1-2
!!!SMS-variant:
!!!SMS-altvar:
**kern	**kern
*part1	*part1
*staff2	*staff1
*I"Keyboard instrument	*
*I'keyb	*
*clefF4	*clefC1
*k[]	*k[]
*C:	*C:
*M2/2	*M2/2
*met(c|)	*met(c|)
=1	=1
1G\ 1E\ 1C\	1cc\ 1g\ 1e\
=2	=2
*^	*^
2G/	1C\	2e/	1c\
2A/	.	2f/	.
=3	=3	=3	=3
2E/	1C\	2g/	1c\
2F/	.	2a/	.
=4	=4	=4	=4
*	*2\right	*	*
1G/	2.C\	2g/	1d\
.	.	2cc/	.
!	!LO:TX:a:t=P:problem:all\right	!	!
.	4BB\	.	.
=5	=5	=5	=5
*	*	*	*2\right
2A/	2AA\	2cc/ 2a/	2e\
2G/	2BB\	2b/ 2g/	2d\
=6	=6	=6	=6
1c/	1C\	2g/	1e\
.	.	2a/	.
=7	=7	=7	=7
!	!	!	!LO:TX:a:t=P:problem:w tym takcie znajdują się 3 zamazane nuty; trudno ustalić, co znajduje się w drugim głosie po 2d\
2c/	1D\	2f/	2d\
2B/	.	2g/	2ryy
=8	=8	=8	=8
2G/	2.E\	1g/	2e\
2c/	.	.	2ryy
.	4F\	.	.
*	*	*v	*v
=9	=9	=9
2c/	2.G\	1d/
2B/	.	.
.	4F\	.
!!LO:LB:g=original
=10	=10	=10
2B/	1E\	1g\
[2c/	.	.
=11	=11	=11
2c/]	1D\	[y4f/
!	!	!LO:N:xstem:cue
.	.	8f]
.	.	8e/
2B/	.	8d/L
.	.	8f/
.	.	8e/
.	.	8d/J
*v	*v	*
=12	=12
4C/	1g/ 1e/ 1c/
4BB/	.
4AA/	.
4GG/	.
=13	=13
4FF/	1a/ 1f/ 1c/
4GG/	.
4AA/	.
4FF/	.
=14	=14
*^	*^
2D/	2GG\	2f/	1d\
2E/	2EE/	[2g/	.
=15	=15	=15	=15
2A/	2AA\	2g/]	1e\
2F/	2FF\	2a/	.
=16	=16	=16	=16
2F/	1GG\	2f/	1d\
2E/	.	2g/	.
*v	*v	*	*
=17	=17	=17
*	*	*^
1D/ 1GG/	2g/	1d\	2.ryy
.	2f/	.	.
!	!	!	!LO:TX:a:t=P:problem:niejednoznaczny zapis nuty, 4B#X/ lub 4A#X/ lub 4G#X/
.	.	.	4B#X/
*	*v	*v	*v
=18	=18
1C/ 1GG/ 1CC/	1g/ 1e/ 1c/
==	==
*-	*-
!!!system-decoration: {(s1,s2)}
!!!ENC: Zofia Niedbalska
!!!END: 2020-12-09
!!!ENC: Tomasz Grochalski
!!!END: 2020-06-12
